assets/images/afrikons/bell.svg

<svg viewBox="0 0 39.48 50" xmlns="http://www.w3.org/2000/svg"><path d="m39.48 45.88h-15.62a4.11 4.11 0 0 1 -4.12 4.12 4.06 4.06 0 0 1 -4.12-4l-15.62-.12 2.46-4.88a16.59 16.59 0 0 0 1.79-8l-.38-13.37a15.87 15.87 0 0 1 14-15.77v-2a1.83 1.83 0 0 1 1.87-1.86 1.77 1.77 0 0 1 1.26.54 1.77 1.77 0 0 1 .54 1.29v2a15.87 15.87 0 0 1 14 15.77l-.38 13.42a16.59 16.59 0 0 0 1.84 7.98z"/></svg>

<svg xmlns="http://www.w3.org/2000/svg" viewBox="0 0 39.48 50"><title>bell</title><g id="Layer_2" data-name="Layer 2"><g id="Layer_1-2" data-name="Layer 1"><path d="M39.48,45.88H23.86A4.11,4.11,0,0,1,19.74,50a4.06,4.06,0,0,1-4.12-4L0,45.88,2.46,41a16.59,16.59,0,0,0,1.79-8L3.87,19.63a15.87,15.87,0,0,1,14-15.77v-2A1.83,1.83,0,0,1,19.74,0,1.77,1.77,0,0,1,21,.54a1.77,1.77,0,0,1,.54,1.29v2a15.87,15.87,0,0,1,14,15.77l-.38,13.42A16.59,16.59,0,0,0,37,41Z"/></g></g></svg>
